X:35
T: Imitation (The)
M: 4/4
L: 1/8
C: Luke O'Malley
S: Luke O'Malley vol 1
Z: B.Black
R: reel
K: F
(3CDE|F2 AF BFAF|(3DEF GA BAGF|(3EDC GC ACGE|FAGF ECDE|
F2 AF BFAF | (3DEF GA B2 AB | cff2 afgf | ecBG F2 :|
AB | cff2 afef | afbf af (3de^f | g2 bg d'gbg | dfed cBAG |
F2 AF BFAF | (3DEF GA B2 AB | cff2 afgf | ecBG F2 :|
W: %space
P: version in D
K:D %Transposed from F
(3A,B,C|D2 FD GDFD|(3B,CD EF GFED|(3CB,A, EA, FA,EC|DFED CA,B,C|
D2 FD GDFD | (3B,CD EF G2 FG | Add2 fded | cAGE D2 :|
FG | Add2 fdcd | fdgd fd (3Bc^d | e2 ge bege | BdcB AGFE |
D2 FD GDFD | (3B,CD EF G2 FG | Add2 fded | cAGE D2 :|
